!!!OTL: "Nonnenlied" ICH ESSE NICHT GERNE DIE GERSTE
!!!ARE: Europa, Mitteleuropa, Deutschland, Niederrhein
!!!SCT: Z1248
!!!YEM: Copyright 1995, estate of Helmut Schaffrath.
**kern
*ICvox
*Ivox
*M6/8
*k[f#c#g#]
*A:
{8e
=1
8e
8a
8a
8a
8b
8cc#
=2
4.cc#
4b}
{8a
=3
8a
8cc#
8cc#
4dd
8b
=4
2a
8r}
{8cc#
=5
8dd
8dd
8dd
4dd
8ee
=6
4dd
8b
4dd
8ee}
=7
{4.a
4.e
=8
4a
8cc#
4ee}
{8ff#
=9
8ee
8cc#
8a
8b
8cc#
8b
=10
4.a
4r}
==
!!!AGN: Liebes - Lied
!!!ONB: ESAC (Essen Associative Code) Database: ZUCCAL
!!!AMT: compound duple
!!!AIN: vox
!!!EED: Helmut Schaffrath
!!!EEV: 1.0
*-
